common/src/main/resources/glyphs/nodes/j2eeParameter.svg

<svg xmlns="http://www.w3.org/2000/svg" width="16" height="16" fill="#26C6DA" data-big="true" viewBox="0 0 24 24"><path d="M18.08 17.8c-.46.13-.87.2-1.23.2-1.2 0-2.01-.88-2.42-2.65h-.05c-.99 1.91-2.38 2.86-4.13 2.86-1.31 0-2.36-.49-3.15-1.48S5.92 14.5 5.92 13c0-1.75.45-3.15 1.34-4.24s2.1-1.64 3.63-1.64c.82 0 1.56.23 2.2.68.64.46 1.13 1.1 1.47 1.93h.04l.71-2.4h2.56l-2.14 5.32c.24 1.24.49 2.09.77 2.54.24.45.58.68 1 .68.24 0 .43-.04.6-.11zm-4.26-5.24c-.21-1.13-.55-2.01-1.01-2.61-.45-.61-1-.91-1.63-.91-.82 0-1.48.37-1.97 1.1-.49.74-.71 1.65-.71 2.72 0 .98.19 1.79.62 2.45.42.66.99.98 1.7.98.6 0 1.15-.29 1.64-.84.5-.57.91-1.4 1.24-2.49z"/></svg>

<!--
  - The MIT License (MIT)
  -
  - Copyright (c) 2015-2024 Elior "Mallowigi" Boukhobza
  -
  - Permission is hereby granted, free of charge, to any person obtaining a copy
  - of this software and associated documentation files (the "Software"), to deal
  - in the Software without restriction, including without limitation the rights
  - to use, copy, modify, merge, publish, distribute, sublicense, and/or sell
  - copies of the Software, and to permit persons to whom the Software is
  - furnished to do so, subject to the following conditions:
  -
  - The above copyright notice and this permission notice shall be included in all
  - copies or substantial portions of the Software.
  -
  - THE SOFTWARE IS PROVIDED "AS IS", WITHOUT WARRANTY OF ANY KIND, EXPRESS OR
  - IMPLIED, INCLUDING BUT NOT LIMITED TO THE WARRANTIES OF MERCHANTABILITY,
  - FITNESS FOR A PARTICULAR PURPOSE AND NONINFRINGEMENT. IN NO EVENT SHALL THE
  - AUTHORS OR COPYRIGHT HOLDERS BE LIABLE FOR ANY CLAIM, DAMAGES OR OTHER
  - LIABILITY, WHETHER IN AN ACTION OF CONTRACT, TORT OR OTHERWISE, ARISING FROM,
  - OUT OF OR IN CONNECTION WITH THE SOFTWARE OR THE USE OR OTHER DEALINGS IN THE
  - SOFTWARE.
  -->


<svg data-big="true" xmlns="http://www.w3.org/2000/svg" version="1.1" width="16px" height="16px" viewBox="0 0 24 24"
     fill="#26C6DA">
  <path
    d="M18.08,17.8C17.62,17.93 17.21,18 16.85,18C15.65,18 14.84,17.12 14.43,15.35H14.38C13.39,17.26 12,18.21 10.25,18.21C8.94,18.21 7.89,17.72 7.1,16.73C6.31,15.74 5.92,14.5 5.92,13C5.92,11.25 6.37,9.85 7.26,8.76C8.15,7.67 9.36,7.12 10.89,7.12C11.71,7.12 12.45,7.35 13.09,7.8C13.73,8.26 14.22,8.9 14.56,9.73H14.6L15.31,7.33H17.87L15.73,12.65C15.97,13.89 16.22,14.74 16.5,15.19C16.74,15.64 17.08,15.87 17.5,15.87C17.74,15.87 17.93,15.83 18.1,15.76L18.08,17.8M13.82,12.56C13.61,11.43 13.27,10.55 12.81,9.95C12.36,9.34 11.81,9.04 11.18,9.04C10.36,9.04 9.7,9.41 9.21,10.14C8.72,10.88 8.5,11.79 8.5,12.86C8.5,13.84 8.69,14.65 9.12,15.31C9.54,15.97 10.11,16.29 10.82,16.29C11.42,16.29 11.97,16 12.46,15.45C12.96,14.88 13.37,14.05 13.7,12.96L13.82,12.56Z"/>
</svg>
